/* XPM */
static char *exit[] = {
/* columns rows colors chars-per-pixel */
"32 32 3 1 ",
"  c None",
". c #00FF00",
"X c #008800",
/* pixels */
"                                ",
"                                ",
"   XXXXXXXXXXXXXXXXXXXXXXXXXXXX ",
"   X........................X X ",
"   X........................X X ",
"   X........................X X ",
"   X........................X X ",
"   X........................X X ",
"   X........................X X ",
"   X........................X X ",
"   X........................X X ",
"   X........................X X ",
"   X........................X X ",
"   X........................X X ",
"   X........................X X ",
"   X........................X X ",
"   X........................X X ",
"   X........................X X ",
"   X........................X X ",
"   X........................X X ",
"   X........................X X ",
"   X........................X X ",
"   X........................X X ",
"   X........................X X ",
"   X........................X X ",
"   X........................X X ",
"   X........................X X ",
"   X........................X X ",
"   X........................X X ",
"   X........................X X ",
"   XXXXXXXXXXXXXXXXXXXXXXXXXXXX ",
"                                "
};