/* XPM */
static char *fantasy_character[] = {
/* columns rows colors chars-per-pixel */
"64 64 8 1",
"  c None",
". c #2C3E50",
"X c #493267",
"o c #5E35B1",
"O c #2E5984",
"+ c #5D8CAE",
"@ c #7D5A50",
"# c #FFDBAC",
/* pixels */
"                                                                ",
"                                                                ",
"                                                                ",
"                                                                ",
"                                                                ",
"                                                                ",
"                                                                ",
"                                                                ",
"                            XXXXXXXXXXXX                        ",
"                         XXXXXXXXXXXXXXXX                       ",
"                         XXXXXXXXXXXXXXXX                       ",
"                        #################                       ",
"                       #####################                    ",
"                      #######################                   ",
"                      ####..#########..#####                    ",
"                      ####..#########..#####                    ",
"                      #######################                   ",
"                      #######........#######                    ",
"                      #######################                   ",
"                      #######################                   ",
"                     OO+++++++++++++++++++OO                    ",
"                    OO+++++++++++++++++++++OO                   ",
"                   OO+++++++++++++++++++++++OO                  ",
"                  OO+++++++++++++++++++++++++OO                 ",
"                 OO+++++++++++++++++++++++++++OO                ",
"                OO+++++++++++++++++++++++++++++OO               ",
"               OO+++++++++++++++++++++++++++++++OO              ",
"              OO+++++++++++++++++++++++++++++++++OO             ",
"             OO+++++++++++++++++++++++++++++++++++O             ",
"             O++++++++++++++++++++++++++++++++++++O             ",
"              +++++++++++++++++++++++++++++++++++               ",
"                ++++++++                 ++++++++               ",
"                ++++++++                 ++++++++               ",
"                ++++++++                 ++++++++               ",
"                OOO++++                  ++++OOO                ",
"                  OOO                      OOO                  ",
"                  OOO                      OOO                  ",
"                  OOO                      OOO                  ",
"                  OOO                      OOO                  ",
"                  OO                        OO                  ",
"                  OO                        OO                  ",
"                  OO                        OO                  ",
"                  OO                        OO                  ",
"                  OO                        OO                  ",
"                                                                ",
"                                                                ",
"                                             @@@@@              ",
"                                           @@@@@@@              ",
"                                         @@@@@@@@@              ",
"                                        @@@@@@@@@@              ",
"                                        @@@@@@@@@@              ",
"                                        @@@@@@@@@@              ",
"                                         @@@@@@@@               ",
"                                          oooooo                ",
"                                         oooooooo               ",
"                                        oooooooooo              ",
"                                        oooooooooo              ",
"                                        oooooooooo              ",
"                                        oooooooooo              ",
"                                        oooooooooo              ",
"                                                                ",
"                                                                ",
"                                                                ",
"                                                                "
};