/* XPM */
static char *player[] = {
/* columns rows colors chars-per-pixel */
"32 32 3 1 ",
"  c None",
". c #0000FF",
"X c #000000",
/* pixels */
"                                ",
"            ......              ",
"           ........             ",
"          ..........            ",
"          ..........            ",
"         ............           ",
"         ............           ",
"         ............           ",
"         ............           ",
"         ............           ",
"         ............           ",
"          ..........            ",
"          ..........            ",
"           ........             ",
"           ........             ",
"           XXXXXXXX             ",
"           XXXXXXXX             ",
"          XXXXXXXXXX            ",
"          XXXXXXXXXX            ",
"         XXXXXXXXXXXX           ",
"         XXXXXXXXXXXX           ",
"         XXXXXXXXXXXX           ",
"         XXXXXXXXXXXX           ",
"         XXXXXXXXXXXX           ",
"         XX        XX           ",
"        XX          XX          ",
"        XX          XX          ",
"       XX            XX         ",
"       XX            XX         ",
"      XX              XX        ",
"      XX              XX        ",
"                                "
};