/* XPM */
static char *wall[] = {
/* columns rows colors chars-per-pixel */
"32 32 3 1 ",
"  c None",
". c #663300",
"X c #552200",
/* pixels */
"................................",
".XXXXXXXXXXXXXXXXXXXXXXXXXXXXXX.",
".X............................X.",
".X............................X.",
".X............................X.",
".X............................X.",
".X............................X.",
".X............................X.",
".X............................X.",
".X............................X.",
".X............................X.",
".X............................X.",
".X............................X.",
".X............................X.",
".X............................X.",
".X............................X.",
".X............................X.",
".X............................X.",
".X............................X.",
".X............................X.",
".X............................X.",
".X............................X.",
".X............................X.",
".X............................X.",
".X............................X.",
".X............................X.",
".X............................X.",
".X............................X.",
".X............................X.",
".X............................X.",
".XXXXXXXXXXXXXXXXXXXXXXXXXXXXXX.",
"................................"
};