/* XPM */
static char *rcp17272716312791[] = {
/* columns rows colors chars-per-pixel */
"64 64 248 2 ",
"   c #9C3C06",
".  c #973B15",
"X  c #8A3506",
"o  c #A53A0A",
"O  c #A93911",
"+  c #924203",
"@  c #934F1D",
"#  c #A64505",
"$  c #BA580B",
"%  c #BC5613",
"&  c #B24C15",
"*  c #986D04",
"=  c #AA6500",
"-  c #A37516",
";  c #AB7B0C",
":  c #974927",
">  c #A64F2C",
",  c #9C7228",
"<  c #9B6A36",
"1  c #9B662C",
"2  c #A26A29",
"3  c #A7762D",
"4  c #A67A37",
"5  c #C85907",
"6  c #D35E0A",
"7  c #C55D14",
"8  c #CC6C02",
"9  c #C76702",
"0  c #D46809",
"q  c #CC7200",
"w  c #CD7800",
"e  c #D67706",
"r  c #C86118",
"t  c #D86E16",
"y  c #AB5D46",
"u  c #A87847",
"i  c #B47856",
"p  c #B76A4C",
"a  c #C37048",
"s  c #AB8614",
"d  c #AD8433",
"f  c #B59339",
"g  c #C68C02",
"h  c #D58D00",
"j  c #D99B05",
"k  c #C19C10",
"l  c #E78606",
"z  c #E79804",
"x  c #E59614",
"c  c #F29B13",
"v  c #F09508",
"b  c #DCA401",
"n  c #DDAE00",
"m  c #D7A30A",
"M  c #DBB005",
"N  c #DFB116",
"B  c #E2A400",
"V  c #E6AD00",
"C  c #EEAC00",
"Z  c #E6A408",
"A  c #F3AC03",
"S  c #F9AB07",
"D  c #EBB301",
"F  c #EEBC00",
"G  c #E7B504",
"H  c #F4B302",
"J  c #FBB502",
"K  c #F6BB00",
"L  c #FBBC02",
"P  c #FDB50A",
"I  c #F9B90A",
"U  c #E6A614",
"Y  c #F6AA15",
"T  c #FFB913",
"R  c #FFBD1B",
"E  c #FEB314",
"W  c #EDBC17",
"Q  c #C5983B",
"!  c #CAA827",
"~  c #C9AB3D",
"^  c #F8B824",
"/  c #EEB123",
"(  c #EEC600",
")  c #F5C402",
"_  c #FDC402",
"`  c #F6C900",
"'  c #FCCC02",
"]  c #F4C40A",
"[  c #FDC40A",
"{  c #FFCC0B",
"}  c #F7CA0F",
"|  c #F5D202",
" . c #FDD303",
".. c #FDDC02",
"X. c #FFD30B",
"o. c #FEDC0B",
"O. c #F7D706",
"+. c #EAC716",
"@. c #FEC513",
"#. c #F3CA14",
"$. c #FECB13",
"%. c #FDC41A",
"&. c #FFCC1D",
"*. c #F2C619",
"=. c #FFD412",
"-. c #FEDC13",
";. c #FDD81A",
":. c #EDD110",
">. c #FEE302",
",. c #FEED02",
"<. c #FEE30A",
"1. c #FEEB0A",
"2. c #F3EC00",
"3. c #FDF203",
"4. c #FDF20D",
"5. c #F6F000",
"6. c #FFE412",
"7. c #FDEC14",
"8. c #FEE41C",
"9. c #FEEC1A",
"0. c #FFF413",
"q. c #FFF31B",
"w. c #FCCC25",
"e. c #F6C528",
"r. c #FED524",
"t. c #FFDD21",
"y. c #FCD42A",
"u. c #FDDD2B",
"i. c #F5D32C",
"p. c #FCD533",
"a. c #F9D637",
"s. c #EFCE31",
"d. c #FDE924",
"f. c #FFE62B",
"g. c #FFF221",
"h. c #FFF52B",
"j. c #FFEB35",
"k. c #FFEC3D",
"l. c #FBE63A",
"z. c #FFF335",
"x. c #FDF43C",
"c. c #FAF63C",
"v. c #B08F51",
"b. c #B88E65",
"n. c #DDBD58",
"m. c #CBAF4D",
"M. c #C99B67",
"N. c #CC8469",
"B. c #E4917C",
"V. c #D2AC6E",
"C. c #D9AB77",
"Z. c #CFAF74",
"A. c #F0BD62",
"S. c #FED842",
"D. c #ECC75B",
"F. c #F0D358",
"G. c #FCED44",
"H. c #FFED4A",
"J. c #FAE747",
"K. c #FDF443",
"L. c #FFF944",
"P. c #FEF44C",
"I. c #FAF649",
"U. c #FEEB56",
"Y. c #FFF353",
"T. c #FFF954",
"R. c #FFF35C",
"E. c #FFFA5D",
"W. c #EFE255",
"Q. c #FFDB68",
"!. c #F8CF65",
"~. c #FFE666",
"^. c #FFF464",
"/. c #FFF963",
"(. c #FFF66D",
"). c #FFE572",
"_. c #CF9D86",
"`. c #E49682",
"'. c #D9B987",
"]. c #D6B893",
"[. c #DCAD91",
"{. c #EAA994",
"}. c #EAAD95",
"|. c #E8C69C",
" X c #F7C4AA",
".X c #FFC9B7",
"XX c #FBD4BE",
"oX c #ECC9A8",
"OX c #F9E0B8",
"+X c #FFD4C3",
"@X c #FFDACC",
"#X c #FBDBC8",
"$X c #FFD7CA",
"%X c #FEE2C6",
"&X c #FFEBD5",
"*X c #FFE6DB",
"=X c #FEECDD",
"-X c #FAE7D9",
";X c #FEF3DD",
":X c #E7ECE7",
">X c #EBECE6",
",X c #EDE7EC",
"<X c #E7EBEA",
"1X c white",
"2X c #E8E6E6",
"3X c #F5E9E4",
"4X c #FDECE4",
"5X c #F2EDEC",
"6X c #FDEEED",
"7X c #F3E7E6",
"8X c #E6F0E8",
"9X c #EDF1ED",
"0X c #EDF0E5",
"qX c #FFF3E4",
"wX c #FFFAE4",
"eX c #F2F2EE",
"rX c #FEF4EB",
"tX c #FDFBEC",
"yX c #F3F5EB",
"uX c #EDEDF1",
"iX c #F2EEF2",
"pX c #FAEEF3",
"aX c #EDF2F2",
"sX c #EFF8F3",
"dX c #F3F3F3",
"fX c #FBF4F4",
"gX c #F6F9F6",
"hX c #F5FAF5",
"jX c #F9F9F6",
"kX c #FCFAF4",
"lX c #F5F4F9",
"zX c #FAF5FB",
"xX c #F6FBFA",
"cX c #F8F8F8",
"vX c #FAFAFA",
"bX c #FFFFFB",
"nX c #FDFEF9",
"mX c #FEFAFE",
"MX c #FAFEFE",
"NX c white",
"BX c #FFFFFD",
"VX c #FFFDFF",
"CX c #FCFFFF",
"ZX c #FEFEFE",
"AX c white",
"SX c #FFFEFF",
"DX c #FCFEFE",
"FX c #FDFDFD",
/* pixels */
"1X1X1X1XvXNXNXNXdX1X1X1XdXNXNXNXNX1X1X1X1XgXNXNXNXgX1X1X1XiXNXNXNXNXdX>X1X1XhXMXMXMXgX<X1X9X1XNXNXNXNXdX1X1X1XdXNXNXNXvX1X1X1X1X",
"dXdX1X1XvXNXNXNXdX1X1X1XdXNXNXNXNX1XdXeX9XjXNXvXNXgX1X9XuXlXNXNXNXNXdX1X9X1XgXMXvXvXgX9X9X9X1XNXNXNXNXdX1X1X1XdXNXNXNXvX1XdXdXdX",
"1X1X1X1XvXNXNXNXdX1X1X1XdXNXNXNXNX5X1X1X1XjXNXNXNXjX5X1X1XiXmXmXmXNXiX1X1X1XkXNXNXNXjX1X>X1XeXNXNXNXNXdX1X1X1XdXNXNXNXvX1X1X1X1X",
"1X1X1XdXvXNXNXNXdXdX1X1XdXvXNXNXNXdX1X1X1XgXNXNXNXjXeX1X1XdXmXNXNXmXdX1X1XeXkXNXNXNXgX9X1X1XdXvXNXNXvXdX1X1XdXdXNXNXNXvXdX1X1X1X",
"vXvXvXvXdXdXdXdXdXdXvXvXvXdXdXdXlXzXzXzXzXdXdXdXdXdXgXgXgXgXdXdXaXdXgXgXgXgXdXdXdXdXdXzXzXzXzXlXdXdXdXvXvXvXdXlXdXdXdXdXvXvXvXvX",
"NXNXNXNXdX1X1X1XdXNXNXNXvX1X1X1XuXmXNXNXNXlXuXuXuXdXNXMXNXxX9X8X8X9XxXNXNXNXdXuXuXuXlXNXNXNXmX1XuX1X1XvXNXNXNXdX1X1X1XdXNXNXNXNX",
"NXNXNXNXdX1X1X1XdXNXNXNXvX1X1XdX1XNXNXNXNXlXiXiXuXlXNXNXNXMX9X9X9X9XMXNXNXNXlXuXiXuXlXNXNXNXNX1XdX1X1XvXNXNXNXdX1X1X1XdXNXNXNXNX",
"NXNXNXNX1X1X1X1XdXNXNXNXNX1X1X1X>XNXNXNXNXdX1XuXuXlXNXNXNXNX1X1X1X1XNXNXNXNXlXuXuX1XdXNXNXNXNX1X1X1X1XNXNXNXNXdX1X1X1X1XNXNXNXNX",
"dXdXdXdXdXdXdXdXvXdXdXdXdXdXvXdXhX9XdXjXdXdXfXdXfXfXfXfXfXeXkXeXeXkXeXkXkXfXkXfXdXfXdXdXjXdXeXdXdXvXdXdXdXdXdXlXdXdXdXdXdXdXdXdX",
"1X1X1XdXvXNXNXNXdX1X1X1XdXNXNXNXNXaX1X1X1XdXNXNXNXfX5X5X5XeXNXNXNXNXeX5X5X5XkXNXNXNXdX1X1X1XdXNXNXNXNXdX1X1X1XdXNXNXNXvXdX1X1X1X",
"1X1X1X1XvXNXNXNXdX1X1X1XdXNXNXNXNXuXuXuXdXjXNXNXNXjX>X:X1XdXMXMXMXMXaXuX>X>XjXNXNXNXvXaXuXuXuXNXNXNXNXdX1X1X1XdXNXNXNXvX1X1X1X1X",
"1X1X1X1XvXNXNXNXdX1X1X1XdXNXNXNXNXlXuXuX9XgXNXNXxXgXaX9X<XaXMXMXNXxXuXuXaX9XhXMXNXNXgXuXuXuXlXNXNXNXNXdX1X1X1XdXNXNXNXvX1X1X1X1X",
"dXdXdXdXdXvXvXvXdXdXdXdXdXvXvXNXvXdXeXeXeXdXxXvXMXdX9X9XuXdXlXMXvXgXaXaXaXaXhXMXMXxXdXeXdXeXlXvXNXvXvXdXdXdXdXdXNXvXvXdXdXdXdXdX",
"NXNXNXvXdX1X1X1XdXNXNXNXvXdX1X1X1XfXNXNXNXdX1X1X>XeXnXkXtXtXqX;X;XwXtXkXnXNXeX2X1X1XdXNXNXNXkX1X1X1XdXvXNXNXNXdX1X1X1XdXvXNXNXNX",
"NXNXNXNXdX1X1X1XvXNXNXNXvX1X1XeX9XNXNXNXNXlX,XpX6XrXwX%X|.'.C.V.V.Z.'.|.%XwXrXrXiX1XdXNXNXNXNX9XdX1X1XvXNXNXNXdX1X1X1XdXNXNXNXNX",
"NXvXNXNXdX1XdX1XdXNXNXNXNX1X1X1X1XNXNXMXNXpX4XwXOXZ.v.v.m.n.D.!.D.D.n.m.v.v.'.%XrX4XfXNXMXNXNX>X>X1X1XNXNXNXNXdX1XdX1XdXNXNXvXNX",
"NXNXNXNXdX1X,XuXlXNXNXNXkX>X1X1X5XkXNXMXNXkX%XM.s ! W././.E.R.R.E.E./.^.(.F.~ d C.&XkXNXNXMXMX9X>X1XeXkXNXNXMXgXuX1XuXdXMXMXNXNX",
"iX1X1XeXjXNXNXNXlXaX1XeXeXjXNXNXNX5XaX>XwX|.d ! l.z.L.K.c.K.P.P.K.c.P.I.P.Y.R.~.Q v.XXrX5XuX:XxXvXvXkXrXeXeX9XaXNXNXNXvXaX>X1X5X",
"uX1X1X1XjXNXNXNXlX1X1X>XeXNXNXNXNX1X>XwXV.- a.z.9.9.x.P.I.I.H.H.P.I.P.P.Y.H.G.P.^.D.3 |.wX5XeXvXMXNXNX5X1X1X1XdXNXNXNXvX1X1XeX5X",
"1X1X1X>XvXmXNXNXlX1XeX1XeXNXNXNXMX>X;XM.s J.9.1.3.1.j.P.Y.Y.Y.Y.Y.H.P.Y.H.P.L.x.K.R.Q.3 ].qX2XMXMXNXNXeX1X9X1XvXNXNXmXMX>X1X5X5X",
"uX1X1X1XNXNXNXNXdX1X1X>XdXNXNXNXmXtXC.; j.7.,.3.5.4.x.H.a./ U Z j Y ^ S.R.R.x.c.K.P.U.)., |.kXMXMXNXNXdX1X9X1XdXNXNXNXMX1X1X1X1X",
"MXgXjXdXdXdXlXdXdXdXxXgXhXdXdXfXrXoX* a.q.,.,.,.3.<.#.j g j U U U x h g m a.P.L.K.I.Y.R.Q., #XfXdXdXdXlXgXgXdXdXdXlXlXdXdXgXvXvX",
"NXNXNXNXeX1X5X5XdXNXNXMXgX<X2X4X&X3 +.q.,.3.5.1.8.D j D *.p.J.R.R.U.a.e.Z h U Y.P.G.H.J.E.m.v.tX7X1X1XMXNXNXNXdX5X5X1X9XNXNXNXNX",
"NXmXmXNXeXeX5X1XdXNXMXMXxX1X5XqXC.; h.2.,.3.4.6.b C [ ;.f.k.H.Y.Y.E.H.J.p.R j m H.P.H.T.l.^.3 oXrXiX1XMXMXvXNXdX7X5XeX9XNXNXmXNX",
"NXNXNXNXeX1X>X1XdXNXMXxXxX1X7X&X- p.9.,.5.4.9.n A @.` 8.x.L.P.T.E.I.P.P.E.p.r.b N Y.P.I.I.^.A.u qX7XdXMXMXMXvXfX7X>X1XeXNXNXNXNX",
"lXdXdXvXdXdXdXdXzXNXdXhXhXeXrX|.; u.<.,.4.7.( C @.[ | g.z.L.k.s.s.Y.P.G.T.l.#.$.b e.Y.I.I./.).4 #X6XeXaXhXgXvXfXfXdXeXeXgXdXlXlX",
"1X1X5X5XvXNXNXNXdX5X1XaX9XkXkXb.k d.>.>.1.o.V [ L ) O.q.z.L.+.M b e.Y.Y.T.l.+.&.T U U.Y.P.Y.(.f ].kXNXdX<X<XuXfXNXNXvXgX9X1X1XuX",
"9XeX5X1XvXNXNXNXzX5XaXaX9XnXrX4 W 6.>.>.6.` K { [ ) | g.d.c.f.w.y.W i.i.i.i.&.@.&.A p.Y.P.P.R.n.b.kXnXeX1XuXiXfXNXNXNXvX>X1XiXiX",
"1X1X1X1XMXMXNXNXzX1XdX<X9XkX=X, i.>.>.1.<.F _ L K _ G d.q.7.x.j.u.+.n n n %.&.@.[ ] W H.H.P.P.F.v.rXrXeX>X1XiXzXNXNXNXxX>X1XiXiX",
"9XeXdXdXgXxXMXNXdXiXlX1XeXtX@X3 y.>.>.1.-.F _ L _ [ D F 9.g.z.z.x.L.j.u.&.%.@.$.[ } *.H.H.H.P.F.u 4XtXeXaXuXiXzXmXMXxXgXdXdXiXpX",
"NXNXmXmXaXaX1X1XzXNXNXNXyX=XXX3 y.>...o.-.) _ _ _ K [ V B I t.j.x.K.P.k.j.#.{ [ $.+.+.P.H.H.Y.~.< @X=XyXNXNXmXzXuX1X9XaXvXNXNXNX",
"NXNXNXNXaXaX1XaXfXNXcXNXkX=X+X2 y...<.o.-.) ) _ L [ K _ H B b n *.k.L.x.z.t.[ { @.#.+.K.G.K.G.~.< +XqXkXvXMXNXzXiX1X9X9XNXNXNXNX",
"NXNXNXNX9X9X1XdXzXNXMXNXkX-X@X2 w. .o.-.o.` ) K L L '  .o.6.] D b G h.h.h.8.[ [ [ ] ;.x.z.f.f.S.2 .X=XtXvXNXNXzXdX1X1X9XNXNXNXNX",
"NXNXNXvX9X9X1X1XzXNXNXNXyX=X*X1 e.o.X.X.o.| ) L L L | 0.1.1.| ] ] ) 1.4.q.6.] L ] F ;.8.8.9.8.e.@ +XqXtXvXMXNXzXuX1X1XdXNXNXNXNX",
"iXiXdXeXgXxXMXNXzXiXuX9XyXkXrX1 m o. .O.<. .L L L F ( 0.,.3.,.| | <.,.,.9.=.D L J K <.<.6.6.6.N @ *XtX0X9XaXiXpXmXMXgXjX5X5XdXaX",
"5X5X1X>XxXvXNXNXzX1XdX>XeXkXrXu g =. ...o. ._ J L K ` 9.1.>.,.3.3.,.1.0. .K K L J _ o.1.1.<.f.g 1 rXkX0X>XaXiXmXNXNXNXvX1X5X1X1X",
"iXiX1X>XxXvXNXNXzX,XaX1X1XkXkXM.= w.=.|  .X.{ K K L C H 8.9.1.,.,.4.6.{ C J P H L X.o.<...o.y.= i kXnX9X9XuXiXmXNXNXMXvX1X5XuXuX",
"uXuXuX9XgXvXNXNXzX,X,X1XdXnXkX X+ Y w.'  . .X.$.D L J z z V  .q.7.O.b B P P C L { -.o.....t.Y + [.kXkX9X9X1X,XlXNXMXxXgX9X1X1X1X",
"lXlXlXgXdXdXdXfXfXlXcXgXdXeXrX&X& 0 ^ {  . . .-.;.G H T P A C V V D H P I H K _ o.o.>...6.%.8 # #XfXdXdXgXvXzXNXdXdXsXdXjXdXlXlX",
"NXNXNXNXeX1X1X1XzXNXMXMXvXeX>XqXN.  x R ' ' ' O.8.;.] C S T A A C A P H D ) ' o.....>.o.r.j # a 4X7X1XcXNXNXmXfX1X>X8X9XNXNXNXNX",
"NXMXMXNX9XeX5X1XdXNXgXMXMX1XiX4X@X@ $ c @._ ' ' ' X.=.{ L H H A A P J L { X. .......o.r.v 9 +  X4XuX1XNXNXvXNXfX>X9X9X9XNXNXmXNX",
"NXNXNXNXaX1X5X5XlXNXNXNXxX1X1X7X6X_.  9 v @.[ ' ` ' { X.{ { $.@.@.[ { ' X.X....... .&.z e # N.rX7X,X<XxXNXNXNXdX1X9X>X9XNXNXNXNX",
"vXvXgXdXdXlXlXdXdXdXgXgXdXdXlXdX6XrXy # 0 l %.[ { ` _ { ' ` '  .' '  . .X.{  . .=.@.v e % > *XpXlXdXlXlXlXdXzXdXeXdXdXdXdXvXvXvX",
"uX1X1X1XNXNXNXNXgX1X1X1XdXNXNXMXmX6X$X: & 0 w Y I I [ _ ) ' ' ) ' ` ' ' [ [ $.&.S w e $ X .XfXmXmXNXNXdX1X1X1XjXNXNXNXNX1X1X1X1X",
"5XiX1X1XMXmXNXNXdX1X9X1X5XNXNXNXNXrX4X+X. o 6 l c Y R %.[ _ _ _ _ { ' { @.w.E h 8 e % X oXqX7XmXNXNXNXdX1X9X1XdXNXNXmXmX1X1X1X1X",
"5X5X1X1XvXNXNXNXdX1X1X1X5XNXNXNXNX5X2XrX.X>   5 8 9 w l Y E T T R P H A z w 8 8 t # :  XwX9X5XNXNXNXNXdX>X9X>XdXNXNXmXzX1X1X9X9X",
"5X1X>XaXvXNXmXNXdXdX9X5XfXNXvXvXNX,XzXiX4X&Xb.X & 5 6 5 5 9 q q q q 8 9 9 0 6 5 X p @XkX5X1XeXNXNXmXNXdX9X9XaXgXNXNXmXzXiX1X1X9X",
"NXNXNXMXdX1X,XuXdXNXNXNXkX5X>X9XiXNXmXMXMXeX4X}.>   o % r 7 7 r r r r r % # o > `.*XfXMXmXNXNX1XiX5X5XjXNXNXvXdXuX,X5XlXmXNXNXNX",
"NXvXNXNXdX1XdX1XdXNXNXNXNX1X1X1XiXNXNXNXNXeX-XqX&X}.i : . . o o O o . . : i {.%XwX3XdXNXmXNXNX1X1X1X1XNXNXNXNXdX1XiX1XdXNXNXvXNX",
"NXNXNXNXdX1X1X1XdXNXNXNXvX1X1XiX5XmXNXNXNXdX1XeX3XqXrX=X.X{.`.B.B.`.{..X*XrXrX4XeX:XaXNXNXNXNX5XiX1X1XvXNXNXNXdX1X1X1XdXNXNXNXNX",
"NXNXNXvXdX1X1X1XdXNXNXNXvXdX1X1XeXvXNXNXNXlX1XuX5XpXNXNXkXkXrXrXqXrXkXkXNXNXpX1XiXuXlXNXNXNXgX1X1X1XdXvXNXNXNXdX1X1X1XdXvXNXNXNX",
"dXdXdXdXdXvXvXvXdXdXdXdXdXvXvXNXgXaXaXdXdXlXmXmXmXzXuXuXuXaXhXsXdXgXdXiXuXiXlXmXmXmXlXdXdXaXdXxXNXvXvXdXdXdXdXdXNXvXvXvXdXdXdXdX",
"1X1X1X1XvXNXNXNXdX1X1X1XdXNXNXNXMXaX1X1XuXzXNXNXmXmXiXuXuXuXMXMXNXMXuX,XuXiXmXmXNXNXzX1X1X1XaXNXNXNXNXdX1X1X1XdXNXNXNXvX1X1X1X1X",
"1X1X1X1XvXNXNXNXdX1X1X1XdXNXNXMXMXaX1XaXdXlXNXMXmXzX1XuXuXdXNXMXNXNXiXiXuX,XzXNXmXNXvXdXuX1XaXMXMXNXNXdX1X1X1XdXNXNXNXvX1X1X1X1X",
"1X1X1XdXvXNXNXNXdX1X1X1XdXNXNXNXmXiX1X1X1XhXNXNXNXvX>X>X>X1XNXNXNXNXeX1X9X1XjXvXNXNXdX1X1X1XlXNXNXNXNXdX1X1X1XdXNXNXNXvXdX1X1X1X",
"dXdXdXdXdXdXdXdXdXdXdXdXdXdXvXdXzXlXlXvXdXdXhXeXeXhX9XkXkXeXkXeXeXkXeXdXgX9XgXeX9XhXdXdXvXlXlXzXdXvXdXdXdXdXdXdXdXdXdXdXdXdXdXdX",
"NXNXNXNX1X1X1X1XdXNXNXNXNX1X1X1X1XNXNXNXNXeX>X>X:XdXMXMXNXMX1XuXuX1XMXMXNXMXdX:X>X>XeXNXNXNXNX1X1X1X1XNXNXNXNXdX1X1X1X1XNXNXNXNX",
"NXNXNXNXdX1X1X1XdXNXNXNXvX1X1XdX,XNXNXNXNXdX1X9X>XdXNXNXNXMXuXuXuXuXMXNXNXNXdX>X1X1XdXNXNXNXNX1XdX1X1XvXNXNXNXdXdX1X1XdXNXNXNXNX",
"NXNXNXNXdX1X1X1XdXNXNXNXvX1X1X1X1XNXNXNXNXdX5X5X1XdXNXNXNXmXiXuXuXiXmXNXNXNXlX1X5X5XdXNXNXNXNX1X1X1X1XvXNXNXNXdX1X1X1XdXNXNXNXNX",
"vXvXvXvXdXdXdXdXdXdXvXvXvXdXdXdXdXvXvXjXjXdXdXdXdXlXzXzXzXzXlXpXpXlXzXzXzXzXfXdXdXdXdXjXjXvXvXdXdXdXdXvXvXvXdXdXdXdXdXdXvXvXvXvX",
"1X1X1XdXvXNXNXNXdXdX1X1XdXvXNXNXmXlX1X1X1XdXNXNXNXgXeX1X1XeXvXNXNXvXeX1X1X9XjXNXNXNXgX1X1X1XlXmXNXNXvXdX1X1XdXdXNXNXNXvXdX1X1X1X",
"1X1X1X1XvXNXNXNXdX1X1X1XdXNXNXNXNXiX1X,XuXvXNXNXNXgX1X1X>XeXNXNXNXNXeX>X>X1XgXNXNXNXvXuX,X1XiXNXNXNXNXdX1X1X1XdXNXNXNXvX1X1X1X1X",
"dXdX1X1XvXNXNXNXvX1X1X1XdXNXNXNXNXuXuXdXaXvXNXmXNXzXuXiX1XdXMXMXNXNXdX1XuXuXzXNXmXNXvXuXaXuXuXNXNXNXNXdX1X1X1XdXNXNXNXvX1X1XdXdX",
"1X1X1X1XvXNXNXNXdX1X1X1XdXNXNXNXNX1XuX1X,XzXNXNXNXzXuXuX,XaXNXNXNXNXdX,XuXuXzXNXNXNXzX,X1XaX9XNXNXNXNXdX1X1X1XdXNXNXNXvX1X1X1X1X"
};
