/* XPM */
static char *rcp17170344451615[] = {
/* columns rows colors chars-per-pixel */
"64 64 3 1 ",
"  c white",
". c black",
"X c #E4EBFB",
/* pixels */
"X                                                               ",
"X                                                               ",
"X                                                               ",
"X                                                               ",
"X                                                               ",
"X                                                               ",
"X                                                               ",
"X                                                               ",
"X                                                               ",
"X                                                               ",
"X                                                               ",
"X                                                               ",
"X                                                               ",
"X                                                               ",
"X                                                               ",
"X                                                               ",
"X                                                               ",
"X                                                               ",
"X                                                               ",
"X                                                               ",
"X                                                               ",
"X                                                               ",
"X                                                               ",
"X                                                               ",
"X                                                               ",
"X                                                               ",
"X                                                               ",
"X                                                               ",
"X                                                               ",
"X                                                               ",
"X                                                               ",
"X                                                               ",
"X                                                               ",
"X                                                               ",
"X                                                               ",
"X                                                               ",
"X                                                               ",
"X                                                               ",
"X                                                               ",
"X                                                               ",
"X                                                               ",
"X                                                               ",
"X                                                               ",
"X                                                               ",
"X                                                               ",
"X                                                               ",
"X                                                               ",
"X                                                               ",
"X                                                               ",
"X                                                               ",
"X                                                               ",
"X                                                               ",
"X                                                               ",
"X                                                               ",
"X                                                               ",
"X                                                               ",
"X                                                               ",
"X                                                               ",
"X                                                               ",
"X                                                               ",
"X                                                               ",
"X                                                               ",
"X                                                               ",
"X                                                               "
};
