/* XPM */
static char *fantasy_wall[] = {
/* columns rows colors chars-per-pixel */
"64 64 4 1",
"  c #7F8C8D",
". c #95A5A6",
"X c #A6B7B9",
"o c None",
/* pixels */
"................................................................",
"................................................................",
"................................................................",
"................................................................",
"................................................................",
"................................................................",
"................................................................",
"................................................................",
"................................  ..............................",
"....................  ..........  ..............................",
"....................  ..........  ..............................",
"....................  ..........  ..............................",
"....................  ..........  ..............................",
"....................  ..........  ..............................",
"....................  ..........  ..............................",
"....................  ..........  ..............................",
"............  ..............................  ..................",
"............  ..............................  ..................",
"............  ..............................  ..................",
"............  ..............................  ..................",
"............  ..............................  ..................",
"............  ..............................  ..................",
"............  ..............................  ..................",
"............  ..............................  ..................",
"................................................................",
"................................................................",
"................................................................",
"................................................................",
"........  ................  ..............  ....................",
"........  ................  ..............  ....................",
"........  ................  ..............  ....................",
"........  ................  ..............  ....................",
"........  ................  ..............  ....................",
"........  ................  ..............  ....................",
"........  ................  ..............  ....................",
"........  ................  ..............  ....................",
"..........  ..........  ................  ......................",
"..........  ..........  ................  ......................",
"..........  ..........  ................  ......................",
"..........  ..........  ................  ......................",
"..........  ..........  ................  ......................",
"..........  ..........  ................  ......................",
"..........  ..........  ................  ......................",
"..........  ..........  ................  ......................",
"............  ..............................  ..................",
"............  ..............................  ..................",
"............  ..............................  ..................",
"............  ..............................  ..................",
"............  ..............................  ..................",
"............  ..............................  ..................",
"............  ..............................  ..................",
"............  ..............................  ..................",
"................................................................",
"................................................................",
"................................................................",
"................................................................",
"................................................................",
"................................................................",
"................................................................",
"................................................................",
"................................................................",
"................................................................",
"................................................................",
"................................................................"
};